build/system/EyedropperOutline.svg

<svg xmlns="http://www.w3.org/2000/svg" fill="none" viewBox="0 0 24 24" focusable="false"><path d="M0 0H24V24H0z"/><path fill="#74767B" fill-rule="evenodd" d="M15.2856 12.925L14.8114 12.4508L8.27721 18.985C7.44156 19.8206 6.16152 19.941 5.19782 19.3462L4.51782 20.0262C4.26398 20.28 3.85242 20.28 3.59858 20.0262C3.34474 19.7723 3.34474 19.3608 3.59858 19.1069L4.30596 18.3996C3.79765 17.4531 3.94289 16.2482 4.74168 15.4494L11.2759 8.91525L10.7342 8.37358C10.4804 8.11974 10.4804 7.70818 10.7342 7.45434C10.988 7.2005 11.3996 7.2005 11.6534 7.45434L12.1951 7.99601L15.4392 4.75188C16.4156 3.77557 17.9985 3.77558 18.9748 4.75189C19.9511 5.7282 19.9511 7.31111 18.9748 8.28742L15.7306 11.5315L16.2049 12.0058C16.4587 12.2596 16.4587 12.6712 16.2049 12.925C15.951 13.1788 15.5395 13.1788 15.2856 12.925ZM7.35797 18.0657L13.8922 11.5315L12.1951 9.83449L5.66092 16.3687C5.19229 16.8373 5.19229 17.5971 5.66092 18.0657C6.12955 18.5344 6.88935 18.5344 7.35797 18.0657ZM16.3585 5.67112L13.1144 8.91525L14.8114 10.6123L18.0555 7.36818C18.5242 6.89955 18.5242 6.13976 18.0555 5.67113C17.5869 5.2025 16.8271 5.2025 16.3585 5.67112Z"/></svg>

<svg xmlns="http://www.w3.org/2000/svg" fill="none" viewBox="0 0 24 24" focusable="false"><path fill="#74767B" fill-rule="evenodd" d="m15.28 12.92-.47-.47-6.54 6.53c-.83.84-2.11.96-3.08.36l-.68.68a.64.64 0 0 1-.92 0 .66.66 0 0 1 0-.92l.71-.71a2.5 2.5 0 0 1 .44-2.95l6.53-6.53-.54-.54a.66.66 0 0 1 0-.92c.25-.25.66-.25.92 0l.54.54 3.24-3.24c.98-.98 2.56-.98 3.54 0 .98.97.98 2.56 0 3.53l-3.24 3.25.47.47c.25.25.25.67 0 .92s-.67.25-.92 0m-7.93 5.14 6.54-6.53-1.7-1.7-6.53 6.53c-.47.47-.47 1.23 0 1.7.46.47 1.22.47 1.69 0m9-12.39-3.24 3.24 1.7 1.7 3.24-3.25c.47-.47.47-1.23 0-1.69-.47-.47-1.23-.47-1.7 0"/></svg>
